X: 365
U:~=!turn!
M:C
L:1/8
K:A
d | c>eA>e c>e d/2c/2B/2A/2 | G.BE>B G>BE>d | c>eA>e c>e d/2c/2B/2A/2 | F>B A/2G/2F/2E/2 A2 (Ad) |
c>eA>e (d/2e/2)f/2g/2 a2 | (F<B)B>c d/2c/2B/2A/2 G/2F/2E/2D/2 | C>DE>C D<F E2 | F.B A/2G/2F/2E/2 A2 A2 |]


